svgs/sharp-regular/kip-sign.svg

<svg xmlns="http://www.w3.org/2000/svg" viewBox="0 0 384 512"><!--! Font Awesome Pro 6.6.0 by @fontawesome - https://fontawesome.com License - https://fontawesome.com/license (Commercial License) Copyright 2024 Fonticons, Inc. --><path d="M335.6 82.2l18.2-15.6L322.6 30.2 304.4 45.8 112 210.7 112 56l0-24L64 32l0 24 0 176-40 0L0 232l0 48 24 0 40 0 0 177 0 24 48 0 0-24 0-155.7L304.4 466.2l18.2 15.6 31.2-36.4-18.2-15.6L160.9 280 360 280l24 0 0-48-24 0-199.1 0L335.6 82.2z"/></svg>

<svg xmlns="http://www.w3.org/2000/svg" viewBox="0 0 384 512"><!--! Font Awesome Pro 6.4.0 by @fontawesome - https://fontawesome.com License - https://fontawesome.com/license (Commercial License) Copyright 2023 Fonticons, Inc. --><path d="M335.6 82.2l18.2-15.6L322.6 30.2 304.4 45.8 112 210.7V56 32H64V56 232H24 0v48H24 64V457v24h48V457 301.3L304.4 466.2l18.2 15.6 31.2-36.4-18.2-15.6L160.9 280H360h24V232H360 160.9L335.6 82.2z"/></svg>
